X: 1003
T: Her Halinle, Her Şeyinle...
C: Erol Sayan
O: Turkey
F: http://compmusic.upf.edu/node/140
N: muhayyer--sarki--aksak--her_halinle--erol_sayan
N: makam= muhayyer
N: form= sarki
N: usul= aksak = 9/8
M: 9/8
L: 1/16
K: C _2/4B ^3/4f  
Q: 1/4=192
%%MIDI tuningsystem comma53
a8 e8 d2 | e2 d2c2 B2A2 B2c2 d2e2  | \
w:  SAZ  |   | 
f2g2 a2b2 c'2b2 c'2b2 a2 | 
w:   | 
a6 g2f2 g2a2 a2g2  | g4 g2f2 g2e2 e4 d2 | \
w:   |   | 
e2 d2c2 B2A2 B2c2 d2c2  | 
w:   | 
d2c2 B2A2 G2A2 B4 A2 | d4(3c2B2A2A2 Bcde fgag  | 
w:   |   | 
a8 e8 d2 | e2 d2c2 B2A2 B2c2 d2e2  | \
w:  SAZ  |   | 
f2g2 a2b2 c'2b2 c'2b2 a2 | 
w:   | 
a6 g2f2 g2a2 a2g2  | g4 g2f2 g2e2 e4 d2 | \
w:   |   | 
e2 d2c2 B2A2 B2c2 d2c2  | 
w:   | 
d2c2 B2A2 G2A2 B4 A2 | d4(3c2B2A2A2 Bcde fgag  | 
w:   |   | 
f4 g4 a4 a6 | c'4c'2 b2a2 g2f2 e2f2  | \
w:  Her  ha lin le   |  her  şe *  yin *  le   | 
g2f2 e2d2 a4 a2{b}a2 {b}g2 | g2 g2g2 f2g2 f2g2 e2d2  | 
w:  gü zel *  *  sin   SAZ  |  Ha ta  *  *  bul *  mak   | 
c'2c'4b2 b2a2 a4 g2 | g2 ^2/4f2f2 e2e4e.c .d.e.=f2  | \
w:  ku sur  *  bul *  mak   |  güç  *  sen *  de   SAZ  | 
=f2f6 e2f2 f2e2 d2 | 
w:  Ni ye  be *  nim   | 
g2 g4 z2e4e4d2  | e2d2 c2B2 c4 d6 | e2 d2c2 B2A2 B2c2 d2c2  | 
w:  i çin  ken din   |  ü zer *  *  sin    |  Gü nah  *  *  ben *  de   | 
d2c2 B2A2 G2A2 B4 A2 | d4(3c2B2A2A4AG ABcd  | \
w:  ku sur  *  *  ben *  de   |  suç  ben *  *  de   SAZ  | 
e2d2 c2B2 A2B2 c2d2 c2 | 
w:   | 
d2 c2B2 A2G2 A2B4A2  | d4 (3c2B2A2 A4 A2B2 ^c2 | \
w:   |   | 
d4d2 d2d4d2 ^c2_7/8B2  | 
w:  Her  kö şe ba şın  | 
^c8 d4 e4 d2 | =f2 e2d2 ^c2d4ag ^f^efg  | \
w:  da  dur dum   |  ağ *  la *  dım   SAZ  | 
^f2f4f2 f2g2 f2e2 d2 | 
w:  *  Her  ge len  *  ge çen  | 
g4^f2 g2a4g2 f^ef2  | a4 (3g2f2e2 e8 z2 | \
w:  den  *  *  sor dum   |  ağ la *  *  dım    | 
^c2 d2d4c2 d2c2 _7/8B2A2  | 
w:  Ba şı mı  taş *  la  | 
a8 (3g2f2g2 e4 d2 | e2 d2c2 B2c4d6  | \
w:  ra  vur *  *  dum   |  ağ *  la *  dım    | 
e2d2 c2B2 A2B2 c2d2 c2 | 
w:  Gü nah  *  *  ben *  de   | 
d2 c2B2 A2G2 A2B4A2  | d4 (3c2B2A2 A8-A2 | \
w:  ku sur  *  *  ben *  de   |  suç  ben *  *  de   | 
e2 d2c2 B2A2 B2c2 d2c2  | 
w:  Gü nah  *  *  ben *  de   | 
d2c2 B2A2 G2A2 B4 A2 | d4(3c2B2A2A8-A2  | \
w:  ku sur  *  *  ben *  de   |  suç  ben *  *  de   | 
a8 e8 d2 | e2 d2c2 B2A2 B2c2 d2e2  | 
w:  SAZ  |   | 
f2g2 a2b2 c'2b2 c'2b2 a2 | a6 g2f2 g2a2 a2g2  | \
w:   |   | 
g4 g2f2 g2e2 e4 d2 | 
w:   | 
e2 d2c2 B2A2 B2c2 d2c2  | d2c2 B2A2 G2A2 B4 A2 | \
w:   |   | 
d4(3c2B2A2A2 Bcde fgag  | 
w:   | 
a8 e8 d2 | e2 d2c2 B2A2 B2c2 d2e2  | \
w:  SAZ  |   | 
f2g2 a2b2 c'2b2 c'2b2 a2 | 
w:   | 
a6 g2f2 g2a2 a2g2  | g4 g2f2 g2e2 e4 d2 | \
w:   |   | 
e2 d2c2 B2A2 B2c2 d2c2  | 
w:   | 
d2c2 B2A2 G2A2 B4 A2 | d4(3c2B2A2A2 Bcde fgag  | 
w:   |   | 
f4 g4 a4 a6 | c'4c'2 b2a2 g2f2 e2f2  | \
w:  Her  ha lin le   |  her  şe *  yin *  le   | 
g2f2 e2d2 a4 a2{b}a2 {b}g2 | g2 g2g2 f2g2 f2g2 e2d2  | 
w:  gü zel *  *  sin   SAZ  |  Ha ta  *  *  bul *  mak   | 
c'2c'4b2 b2a2 a4 g2 | g2 ^2/4f2f2 e2e4e.c .d.e.=f2  | \
w:  ku sur  *  bul *  mak   |  güç  *  sen *  de   SAZ  | 
=f2f6 e2f2 f2e2 d2 | 
w:  Ni ye  be *  nim   | 
g2 g4 z2e4e4d2  | e2d2 c2B2 c4 d6 | e2 d2c2 B2A2 B2c2 d2c2  | 
w:  i çin  ken din   |  ü zer *  *  sin    |  Gü nah  *  *  ben *  de   | 
d2c2 B2A2 G2A2 B4 A2 | d4(3c2B2A2A4AG ABcd  | \
w:  ku sur  *  *  ben *  de   |  suç  ben *  *  de   SAZ  | 
e2d2 c2B2 A2B2 c2d2 c2 | 
w:   | 
d2 c2B2 A2G2 A2B4A2  | d4 (3c2B2A2 A4 A2B2 ^c2 | \
w:   |   | 
d4d2 d2d4d2 ^c2_7/8B2  | 
w:  Her  kö şe ba şın  | 
^c8 d4 e4 d2 | =f2 e2d2 ^c2d4ag ^f^efg  | \
w:  da  dur dum   |  ağ *  la *  dım   SAZ  | 
^f2f4f2 f2g2 f2e2 d2 | 
w:  *  Her  ge len  *  ge çen  | 
g4^f2 g2a4g2 f^ef2  | a4 (3g2f2e2 e8 z2 | \
w:  den  *  *  sor dum   |  ağ la *  *  dım    | 
^c2 d2d4c2 d2c2 _7/8B2A2  | 
w:  Ba şı mı  taş *  la  | 
a8 (3g2f2g2 e4 d2 | e2 d2c2 B2c4d6  | \
w:  ra  vur *  *  dum   |  ağ *  la *  dım    | 
e2d2 c2B2 A2B2 c2d2 c2 | 
w:  Gü nah  *  *  ben *  de   | 
d2 c2B2 A2G2 A2B4A2  | d4 (3c2B2A2 A8-A2 | \
w:  ku sur  *  *  ben *  de   |  suç  ben *  *  de   | 
e2 d2c2 B2A2 B2c2 d2c2  | 
w:  Gü nah  *  *  ben *  de   | 
d2c2 B2A2 G2A2 B4 A2 | d4(3c2B2A2A8-A2  | |


